contributed-vectors/folder_dark_blue.svg

<svg xmlns="http://www.w3.org/2000/svg" width="192" height="192" fill="none"><g clip-path="url(#a)"><path fill="#53688E" d="M29 20h133c5.52 0 10 4.48 10 10v133c0 5.52-4.48 10-10 10H29c-5.52 0-10-4.48-10-10V30c0-5.52 4.48-10 10-10Z"/><path fill="#728DBE" d="M29.12 33.5H63.5c6.55 0 8.84 7.84 14 13h83.38c6.14 0 11.12 4.99 11.12 11.12V163.9a9.09 9.09 0 0 1-9.09 9.09H28.09c-5.02.01-9.09-4.06-9.09-9.08V43.62c0-5.58 4.54-10.12 10.12-10.12Z"/></g><defs><clipPath id="a"><path fill="#fff" d="M0 0h192v192H0z"/></clipPath></defs></svg>

<svg width="192" height="192" viewBox="0 0 192 192" fill="none" xmlns="http://www.w3.org/2000/svg">
<g clip-path="url(#clip0)">
<path d="M29 20H162C167.52 20 172 24.48 172 30V163C172 168.52 167.52 173 162 173H29C23.48 173 19 168.52 19 163V30C19 24.48 23.48 20 29 20Z" fill="#53688E"/>
<path d="M29.12 33.5C43.54 33.5 55 33.5 63.5 33.5C70.05 33.5 72.34 41.34 77.5 46.5C82.67 46.5 110.46 46.5 160.88 46.5C167.02 46.5 172 51.49 172 57.62V163.9C172 168.92 167.93 172.99 162.91 172.99H28.09C23.07 173 19 168.93 19 163.91V43.62C19 38.04 23.54 33.5 29.12 33.5Z" fill="#728DBE"/>
</g>
<defs>
<clipPath id="clip0">
<rect width="192" height="192" fill="white"/>
</clipPath>
</defs>
</svg>
